X: 9
M: C|
L: 1/8
K: A
|:\
E2 (3GFE G>E (3FED | B>Ed>E c>EB>E | A2 (3cBA e>Ac>A | e>Aa>A g>Af>A |
e>A (3cBA a>Af>A | e>A (3cBA a>Af>A | e>cf>e d>cB>A | G>AB>A G>E"_D.C."F>G |]

